X:41
T:Mug of Brown Ale, The
M:6/8
L:1/8
Q:120
R:Jig (Key of Ador)
K:Ador
"Am"eAA fAA | gfg age | "G"dBA G2A | BAG Bcd | "Am"eAA fAA | gfg age | "G"dBd gdB | BAG "Am"A2d :|:
"Am"efg a2g | aba age | "G"dBd g2d | gba ged | "Am"efg a2g | aba age | "G"dBd gdB | BAG "Am"A2d :|]
